; generated by SuperSlicer 2.4 on 2022-12-01 at 03:08:17 UTC

; 

; external perimeters extrusion width = 0.39mm
; perimeters extrusion width = 0.46mm
; infill extrusion width = 0.64mm
; solid infill extrusion width = 0.56mm
; top infill extrusion width = 0.39mm
; first layer extrusion width = 0.64mm

; object:{"name":"1006351A-exact-GASKET v4","id":"1006351A-exact-GASKET v4 id:0 copy 0","object_center":[110.000000,104.191476,0.000000],"boundingbox_center":[110.000000,104.191476,1.600200],"boundingbox_size":[169.214767,112.267998,3.200400]}
; Total objects to print: 1
M486 T1
; plater:{"center":[110.000000,104.191476,0.000000],"boundingbox_center":[110.000000,104.191476,1.600200],"boundingbox_size":[169.214767,112.267998,3.200400]}

M140 S60 ; set bed temperature
M104 S220 ; set temperature
;TYPE:Custom
G28 ; home all axes
G1 Z5 F5000 ; lift nozzle
M107
G21 ; set units to millimeters
G90 ; use absolute coordinates
M82 ; use absolute distances for extrusion
G92 E0
;_TOOLCHANGE 0
M109 S220 ; set temperature and wait for it to be reached
M190 S60 ; set bed temperature and wait for it to be reached
M107
;LAYER_CHANGE
;Z:0.25
;HEIGHT:0.25
G1 Z0.25 F27000
G1 E-2 F2400
G1 X25.851 Y45.224 F27000
G1 E0 F2400
;TYPE:Skirt
;WIDTH:0.6
G1 F1800
G1 X25.14 Y45.699 E0.04661
G1 X23.711 Y46.981 E0.15114
G1 X22.559 Y48.516 E0.25566
G1 X22.057 Y49.456 E0.3137
G1 X21.42 Y51.267 E0.41823
G1 X21.253 Y52.106 E0.46483
G1 X21.127 Y53.6 E0.54645
G1 X21.127 Y154.783 E6.05674
G1 X21.253 Y156.277 E6.13836
G1 X21.729 Y158.136 E6.24288
G1 X22.057 Y158.927 E6.2895
G1 X23.034 Y160.578 E6.39402
G1 X24.316 Y162.007 E6.49854
G1 X25.851 Y163.159 E6.60307
G1 X26.791 Y163.661 E6.66111
G1 X28.602 Y164.298 E6.76563
G1 X29.441 Y164.465 E6.81224
G1 X30.935 Y164.591 E6.89386
G1 X189.065 Y164.591 E15.50537
G1 X190.559 Y164.465 E15.58699
G1 X192.418 Y163.989 E15.69152
G1 X194.149 Y163.159 E15.79604
G1 X194.86 Y162.684 E15.84265
G1 X196.289 Y161.402 E15.94717
G1 X196.965 Y160.578 E16.00521
G1 X197.943 Y158.927 E16.10974
G1 X198.58 Y157.116 E16.21427
G1 X198.747 Y156.277 E16.26087
G1 X198.873 Y154.783 E16.34249
G1 X198.873 Y53.6 E21.85278
G1 X198.585 Y51.283 E21.97991
G1 X198.01 Y49.576 E22.07802
G1 X197.064 Y47.87 E22.18422
G1 X196.206 Y46.826 E22.25786
G1 X194.752 Y45.604 E22.36126
G1 X193.185 Y44.709 E22.45951
G1 X191.398 Y44.085 E22.56262
G1 X189.493 Y43.813 E22.66741
G1 X30.935 Y43.792 E31.30222
G1 X29.441 Y43.918 E31.38384
G1 X27.582 Y44.394 E31.48837
G1 X25.905 Y45.198 E31.58962
G1 X26.143 Y45.689 F27000
G1 F1800
G1 X26.109 Y45.706 E31.59168
G1 X25.486 Y46.122 E31.63246
G1 X24.133 Y47.327 E31.73116
G1 X23.041 Y48.774 E31.82986
G1 X22.538 Y49.714 E31.8879
G1 X21.943 Y51.425 E31.9866
G1 X21.673 Y53.6 E32.10592
G1 X21.673 Y154.783 E37.6162
G1 X21.796 Y156.223 E37.69491
G1 X22.252 Y157.978 E37.7936
G1 X22.538 Y158.669 E37.83439
G1 X23.457 Y160.232 E37.93308
G1 X24.662 Y161.585 E38.03179
G1 X25.486 Y162.261 E38.08983
G1 X27.049 Y163.18 E38.18853
G1 X28.76 Y163.776 E38.28723
G1 X30.935 Y164.045 E38.40654
G1 X189.065 Y164.045 E47.01805
G1 X190.505 Y163.922 E47.09675
G1 X192.26 Y163.466 E47.19545
G1 X193.891 Y162.677 E47.29415
G1 X194.514 Y162.261 E47.33493
G1 X195.867 Y161.056 E47.43363
G1 X196.543 Y160.232 E47.49167
G1 X197.462 Y158.669 E47.59037
G1 X198.058 Y156.958 E47.68908
G1 X198.327 Y154.783 E47.80839
G1 X198.327 Y53.6 E53.31867
G1 X198.062 Y51.44 E53.43719
G1 X197.52 Y49.818 E53.53029
G1 X196.633 Y48.206 E53.63049
G1 X195.797 Y47.188 E53.7022
G1 X194.42 Y46.038 E53.79995
G1 X192.931 Y45.192 E53.89319
G1 X191.24 Y44.607 E53.99065
G1 X189.44 Y44.356 E54.08961
G1 X30.935 Y44.338 E62.72151
G1 X29.495 Y44.461 E62.80021
G1 X27.74 Y44.917 E62.89892
G1 X26.197 Y45.663 E62.99228
G1 X26.436 Y46.153 F27000
G1 F1800
G1 X26.366 Y46.188 E62.99652
G1 X25.833 Y46.544 E63.03146
G1 X24.555 Y47.674 E63.12434
G1 X23.523 Y49.031 E63.21722
G1 X23.02 Y49.971 E63.27526
G1 X22.465 Y51.584 E63.36814
G1 X22.219 Y53.6 E63.47872
G1 X22.219 Y154.783 E68.98901
G1 X22.34 Y156.17 E69.0648
G1 X22.775 Y157.819 E69.15767
G1 X23.02 Y158.412 E69.19262
G1 X23.879 Y159.885 E69.28549
G1 X25.009 Y161.163 E69.37838
G1 X25.833 Y161.839 E69.43642
G1 X27.306 Y162.698 E69.52929
G1 X28.919 Y163.253 E69.62217
G1 X30.935 Y163.499 E69.73276
G1 X189.065 Y163.499 E78.34426
G1 X190.452 Y163.378 E78.42005
G1 X192.101 Y162.943 E78.51293
G1 X193.634 Y162.195 E78.60581
G1 X194.167 Y161.839 E78.64075
G1 X195.445 Y160.709 E78.73363
G1 X196.121 Y159.885 E78.79167
G1 X196.98 Y158.412 E78.88455
G1 X197.535 Y156.799 E78.97743
G1 X197.781 Y154.783 E79.08801
G1 X197.781 Y53.6 E84.5983
G1 X197.538 Y51.596 E84.7082
G1 X197.031 Y50.06 E84.7963
G1 X196.202 Y48.542 E84.8905
G1 X195.389 Y47.551 E84.96028
G1 X194.087 Y46.472 E85.05238
G1 X192.676 Y45.676 E85.1406
G1 X191.081 Y45.13 E85.23242
G1 X189.386 Y44.9 E85.32556
G1 X30.935 Y44.884 E93.95454
G1 X29.548 Y45.005 E94.03033
G1 X27.899 Y45.44 E94.12321
G1 X26.49 Y46.127 E94.20858
G92 E0
G1 E-2 F2400
; printing object 1006351A-exact-GASKET v4 id:0 copy 0
M486 S0
G1 X105.199 Y152.198 F27000
G1 E0 F2400
;TYPE:Internal perimeter
;WIDTH:0.64
G1 F1800
G1 X104.772 Y152.255 E0.02518
G1 X104.345 Y152.311 E0.05036
G1 X103.549 Y152.641 E0.10073
G1 X102.865 Y153.165 E0.1511
G1 X102.341 Y153.849 E0.20146
G1 X102.011 Y154.645 E0.25182
G1 X101.898 Y155.499 E0.30219
G1 X102.011 Y156.354 E0.35255
G1 X102.341 Y157.15 E0.40292
G1 X102.865 Y157.834 E0.45328
G1 X103.549 Y158.358 E0.50365
G1 X104.345 Y158.688 E0.55401
G1 X105.199 Y158.801 E0.60438
G1 X106.054 Y158.688 E0.65474
G1 X106.85 Y158.358 E0.70511
G1 X107.534 Y157.834 E0.75547
G1 X108.058 Y157.15 E0.80584
G1 X108.388 Y156.354 E0.8562
G1 X108.5 Y155.499 E0.90656
G1 X108.388 Y154.645 E0.95693
G1 X108.058 Y153.849 E1.00729
G1 X107.534 Y153.165 E1.05766
G1 X106.85 Y152.641 E1.10802
G1 X106.054 Y152.311 E1.15839
G1 X105.259 Y152.206 E1.20525
G1 X105.199 Y152.79 F27000
;TYPE:External perimeter
G1 F1800
G1 X104.849 Y152.836 E1.22592
G1 X104.498 Y152.882 E1.24659
G1 X103.845 Y153.153 E1.28793
G1 X103.283 Y153.583 E1.32927
G1 X102.853 Y154.145 E1.37061
G1 X102.582 Y154.798 E1.41195
G1 X102.49 Y155.499 E1.4533
G1 X102.582 Y156.201 E1.49464
G1 X102.853 Y156.854 E1.53598
G1 X103.283 Y157.415 E1.57732
G1 X103.845 Y157.846 E1.61866
G1 X104.498 Y158.117 E1.66
G1 X105.199 Y158.209 E1.70134
G1 X105.901 Y158.117 E1.74269
G1 X106.554 Y157.846 E1.78403
G1 X107.115 Y157.415 E1.82537
G1 X107.546 Y156.854 E1.86671
G1 X107.817 Y156.201 E1.90805
G1 X107.909 Y155.499 E1.94939
G1 X107.817 Y154.798 E1.99073
G1 X107.546 Y154.145 E2.03207
G1 X107.115 Y153.583 E2.07342
G1 X106.554 Y153.153 E2.11476
G1 X105.901 Y152.882 E2.1561
G1 X105.259 Y152.798 E2.19393
;WIPE_START
G1 X104.984 Y152.452 F27000
;WIPE_END
G92 E0
G1 E-2 F2400
G1 X115.867 Y152.198 F27000
G1 E0 F2400
;TYPE:Internal perimeter
G1 F1800
G1 X115.44 Y152.255 E0.02518
G1 X115.013 Y152.311 E0.05036
G1 X114.217 Y152.641 E0.10073
G1 X113.533 Y153.165 E0.1511
G1 X113.009 Y153.849 E0.20146
G1 X112.679 Y154.645 E0.25182
G1 X112.566 Y155.499 E0.30219
G1 X112.679 Y156.354 E0.35255
G1 X113.009 Y157.15 E0.40292
G1 X113.533 Y157.834 E0.45328
G1 X114.217 Y158.358 E0.50365
G1 X115.013 Y158.688 E0.55401
G1 X115.867 Y158.801 E0.60438
G1 X116.722 Y158.688 E0.65474
G1 X117.518 Y158.358 E0.70511
G1 X118.202 Y157.834 E0.75547
G1 X118.726 Y157.15 E0.80584
G1 X119.056 Y156.354 E0.8562
G1 X119.168 Y155.499 E0.90656
G1 X119.056 Y154.645 E0.95693
G1 X118.726 Y153.849 E1.00729
G1 X118.202 Y153.165 E1.05766
G1 X117.518 Y152.641 E1.10802
G1 X116.722 Y152.311 E1.15839
G1 X115.927 Y152.206 E1.20525
G1 X115.867 Y152.79 F27000
;TYPE:External perimeter
G1 F1800
G1 X115.517 Y152.836 E1.22592
G1 X115.166 Y152.882 E1.24659
G1 X114.513 Y153.153 E1.28793
G1 X113.951 Y153.583 E1.32927
G1 X113.521 Y154.145 E1.37061
G1 X113.25 Y154.798 E1.41195
G1 X113.158 Y155.499 E1.4533
G1 X113.25 Y156.201 E1.49464
G1 X113.521 Y156.854 E1.53598
G1 X113.951 Y157.415 E1.57732
G1 X114.513 Y157.846 E1.61866
G1 X115.166 Y158.117 E1.66
G1 X115.867 Y158.209 E1.70134
G1 X116.569 Y158.117 E1.74269
G1 X117.222 Y157.846 E1.78403
G1 X117.783 Y157.415 E1.82537
G1 X118.214 Y156.854 E1.86671
G1 X118.485 Y156.201 E1.90805
G1 X118.577 Y155.499 E1.94939
G1 X118.485 Y154.798 E1.99073
G1 X118.214 Y154.145 E2.03207
G1 X117.783 Y153.583 E2.07342
G1 X117.222 Y153.153 E2.11476
G1 X116.569 Y152.882 E2.1561
G1 X115.927 Y152.798 E2.19393
;WIPE_START
G1 X115.652 Y152.452 F27000
;WIPE_END
G92 E0
G1 E-2 F2400
G1 X127.551 Y152.795 F27000
G1 E0 F2400
;TYPE:Internal perimeter
G1 F1800
G1 X126.852 Y152.887 E0.04126
G1 X126.199 Y153.158 E0.08251
G1 X125.639 Y153.587 E0.12377
G1 X125.21 Y154.147 E0.16503
G1 X124.939 Y154.8 E0.20629
G1 X124.847 Y155.499 E0.24755
G1 X124.939 Y156.199 E0.2888
G1 X125.21 Y156.852 E0.33006
G1 X125.639 Y157.412 E0.37132
G1 X126.199 Y157.841 E0.41257
G1 X126.852 Y158.111 E0.45383
G1 X127.551 Y158.204 E0.49509
G1 X128.251 Y158.111 E0.53635
G1 X128.903 Y157.841 E0.57761
G1 X129.463 Y157.412 E0.61886
G1 X129.893 Y156.852 E0.66012
G1 X130.163 Y156.199 E0.70138
G1 X130.256 Y155.499 E0.74264
G1 X130.163 Y154.8 E0.78389
G1 X129.893 Y154.147 E0.82515
G1 X129.464 Y153.587 E0.86641
G1 X128.903 Y153.158 E0.90767
G1 X128.251 Y152.887 E0.94892
G1 X127.765 Y152.823 E0.97761
G1 X127.611 Y152.803 E0.98668
G1 X127.551 Y153.387 F27000
;TYPE:External perimeter
G1 F1800
G1 X127.005 Y153.459 E1.01891
G1 X126.495 Y153.67 E1.05115
G1 X126.057 Y154.006 E1.08338
G1 X125.722 Y154.443 E1.11561
G1 X125.511 Y154.953 E1.14785
G1 X125.439 Y155.499 E1.18008
G1 X125.511 Y156.046 E1.21232
G1 X125.722 Y156.556 E1.24455
G1 X126.057 Y156.993 E1.27679
G1 X126.495 Y157.329 E1.30902
G1 X127.005 Y157.54 E1.34125
G1 X127.551 Y157.612 E1.37349
G1 X128.098 Y157.54 E1.40572
G1 X128.608 Y157.329 E1.43796
G1 X129.045 Y156.993 E1.47019
G1 X129.381 Y156.556 E1.50243
G1 X129.592 Y156.046 E1.53466
G1 X129.664 Y155.499 E1.56689
G1 X129.592 Y154.953 E1.59913
G1 X129.381 Y154.443 E1.63136
G1 X129.045 Y154.006 E1.6636
G1 X128.608 Y153.67 E1.69583
G1 X128.098 Y153.459 E1.72807
G1 X127.688 Y153.405 E1.75224
G1 X127.611 Y153.395 E1.7568
;WIPE_START
G1 X127.336 Y153.049 F27000
;WIPE_END
G92 E0
G1 E-2 F2400
G1 X93.515 Y152.795 F27000
G1 E0 F2400
;TYPE:Internal perimeter
G1 F1800
G1 X92.816 Y152.887 E0.04126
G1 X92.163 Y153.158 E0.08251
G1 X91.603 Y153.587 E0.12377
G1 X91.174 Y154.147 E0.16503
G1 X90.903 Y154.8 E0.20629
G1 X90.811 Y155.499 E0.24755
G1 X90.903 Y156.199 E0.2888
G1 X91.174 Y156.852 E0.33006
G1 X91.603 Y157.412 E0.37132
G1 X92.163 Y157.841 E0.41258
G1 X92.816 Y158.111 E0.45383
G1 X93.515 Y158.204 E0.49509
G1 X94.215 Y158.111 E0.53635
G1 X94.867 Y157.841 E0.57761
G1 X95.428 Y157.412 E0.61886
G1 X95.857 Y156.852 E0.66012
G1 X96.127 Y156.199 E0.70138
G1 X96.22 Y155.499 E0.74264
G1 X96.127 Y154.8 E0.7839
G1 X95.857 Y154.147 E0.82515
G1 X95.428 Y153.587 E0.86641
G1 X94.867 Y153.158 E0.90767
G1 X94.215 Y152.887 E0.94893
G1 X93.729 Y152.823 E0.97761
G1 X93.575 Y152.803 E0.98668
G1 X93.515 Y153.387 F27000
;TYPE:External perimeter
G1 F1800
G1 X92.969 Y153.459 E1.01891
G1 X92.459 Y153.67 E1.05115
G1 X92.021 Y154.006 E1.08338
G1 X91.686 Y154.443 E1.11562
G1 X91.475 Y154.953 E1.14785
G1 X91.403 Y155.499 E1.18008
G1 X91.475 Y156.046 E1.21232
G1 X91.686 Y156.556 E1.24455
G1 X92.021 Y156.993 E1.27679
G1 X92.459 Y157.329 E1.30902
G1 X92.969 Y157.54 E1.34126
G1 X93.515 Y157.612 E1.37349
G1 X94.062 Y157.54 E1.40573
G1 X94.572 Y157.329 E1.43796
G1 X95.009 Y156.993 E1.47019
G1 X95.345 Y156.556 E1.50243
G1 X95.556 Y156.046 E1.53466
G1 X95.628 Y155.499 E1.5669
G1 X95.556 Y154.953 E1.59913
G1 X95.345 Y154.443 E1.63136
G1 X95.009 Y154.006 E1.6636
G1 X94.572 Y153.67 E1.69584
G1 X94.062 Y153.459 E1.72807
G1 X93.652 Y153.405 E1.75224
G1 X93.575 Y153.395 E1.7568
;WIPE_START
G1 X93.3 Y153.049 F27000
;WIPE_END
G92 E0
G1 E-2 F2400
G1 X48.303 Y152.795 F27000
G1 E0 F2400
;TYPE:Internal perimeter
G1 F1800
G1 X48.09 Y152.823 E0.01257
G1 X47.604 Y152.887 E0.04126
G1 X46.951 Y153.158 E0.08251
G1 X46.391 Y153.587 E0.12377
G1 X45.962 Y154.147 E0.16503
G1 X45.691 Y154.8 E0.20629
G1 X45.599 Y155.499 E0.24755
G1 X45.691 Y156.199 E0.2888
G1 X45.962 Y156.852 E0.33006
G1 X46.391 Y157.412 E0.37132
G1 X46.951 Y157.841 E0.41258
G1 X47.603 Y158.111 E0.45383
G1 X48.303 Y158.204 E0.49509
G1 X49.003 Y158.111 E0.53635
G1 X49.655 Y157.841 E0.57761
G1 X50.215 Y157.412 E0.61886
G1 X50.645 Y156.852 E0.66012
G1 X50.915 Y156.199 E0.70138
G1 X51.008 Y155.499 E0.74264
G1 X50.915 Y154.8 E0.7839
G1 X50.645 Y154.147 E0.82515
G1 X50.216 Y153.587 E0.86641
G1 X49.655 Y153.158 E0.90767
G1 X49.003 Y152.887 E0.94893
G1 X48.363 Y152.803 E0.98668
G1 X48.303 Y153.387 F27000
;TYPE:External perimeter
G1 F1800
G1 X48.167 Y153.405 E0.99474
G1 X47.757 Y153.459 E1.01891
G1 X47.247 Y153.67 E1.05114
G1 X46.809 Y154.006 E1.08338
G1 X46.474 Y154.443 E1.11562
G1 X46.263 Y154.953 E1.14785
G1 X46.191 Y155.499 E1.18008
G1 X46.263 Y156.046 E1.21232
G1 X46.474 Y156.556 E1.24455
G1 X46.809 Y156.993 E1.27679
G1 X47.247 Y157.329 E1.30902
G1 X47.757 Y157.54 E1.34125
G1 X48.303 Y157.612 E1.37349
G1 X48.85 Y157.54 E1.40572
G1 X49.36 Y157.329 E1.43796
G1 X49.797 Y156.993 E1.47019
G1 X50.133 Y156.556 E1.50243
G1 X50.344 Y156.046 E1.53466
G1 X50.416 Y155.499 E1.5669
G1 X50.344 Y154.953 E1.59913
G1 X50.133 Y154.443 E1.63136
G1 X49.797 Y154.006 E1.6636
G1 X49.36 Y153.67 E1.69583
G1 X48.85 Y153.459 E1.72807
G1 X48.363 Y153.395 E1.7568
;WIPE_START
G1 X48.088 Y153.049 F27000
;WIPE_END
G92 E0
G1 E-2 F2400
G1 X30.523 Y136.031 F27000
G1 E0 F2400
;TYPE:Internal perimeter
G1 F1800
G1 X29.824 Y136.123 E0.04126
G1 X29.171 Y136.394 E0.08251
G1 X28.611 Y136.823 E0.12377
G1 X28.182 Y137.383 E0.16503
G1 X27.911 Y138.036 E0.20629
G1 X27.819 Y138.735 E0.24755
G1 X27.911 Y139.435 E0.2888
G1 X28.182 Y140.088 E0.33006
G1 X28.611 Y140.648 E0.37132
G1 X29.171 Y141.077 E0.41258
G1 X29.823 Y141.347 E0.45383
G1 X30.523 Y141.44 E0.49509
G1 X31.223 Y141.347 E0.53635
G1 X31.875 Y141.077 E0.57761
G1 X32.436 Y140.648 E0.61887
G1 X32.865 Y140.088 E0.66012
G1 X33.135 Y139.435 E0.70138
G1 X33.228 Y138.735 E0.74264
G1 X33.135 Y138.036 E0.7839
G1 X32.865 Y137.383 E0.82515
G1 X32.436 Y136.823 E0.86641
G1 X31.875 Y136.394 E0.90767
G1 X31.223 Y136.123 E0.94893
G1 X30.583 Y136.039 E0.98668
G1 X30.523 Y136.623 F27000
;TYPE:External perimeter
G1 F1800
G1 X29.977 Y136.695 E1.01891
G1 X29.467 Y136.906 E1.05115
G1 X29.029 Y137.242 E1.08338
G1 X28.694 Y137.679 E1.11562
G1 X28.483 Y138.189 E1.14785
G1 X28.411 Y138.735 E1.18008
G1 X28.483 Y139.282 E1.21232
G1 X28.694 Y139.792 E1.24455
G1 X29.029 Y140.229 E1.27679
G1 X29.467 Y140.565 E1.30902
G1 X29.977 Y140.776 E1.34125
G1 X30.523 Y140.848 E1.37349
G1 X31.07 Y140.776 E1.40573
G1 X31.58 Y140.565 E1.43796
G1 X32.017 Y140.229 E1.47019
G1 X32.353 Y139.792 E1.50243
G1 X32.564 Y139.282 E1.53466
G1 X32.636 Y138.735 E1.5669
G1 X32.564 Y138.189 E1.59913
G1 X32.353 Y137.679 E1.63137
G1 X32.017 Y137.242 E1.6636
G1 X31.58 Y136.906 E1.69583
G1 X31.07 Y136.695 E1.72807
G1 X30.583 Y136.631 E1.7568
;WIPE_START
G1 X30.308 Y136.285 F27000
;WIPE_END
G92 E0
G1 E-2 F2400
G1 X30.523 Y100.636 F27000
G1 E0 F2400
;TYPE:Internal perimeter
G1 F1800
G1 X30.096 Y100.693 E0.02518
G1 X29.669 Y100.749 E0.05036
G1 X28.873 Y101.079 E0.10073
G1 X28.189 Y101.603 E0.1511
G1 X27.665 Y102.287 E0.20146
G1 X27.335 Y103.083 E0.25182
G1 X27.222 Y103.938 E0.30219
G1 X27.335 Y104.792 E0.35255
G1 X27.665 Y105.588 E0.40292
G1 X28.189 Y106.272 E0.45328
G1 X28.873 Y106.796 E0.50365
G1 X29.669 Y107.126 E0.55401
G1 X30.523 Y107.239 E0.60438
G1 X31.378 Y107.126 E0.65474
G1 X32.174 Y106.796 E0.70511
G1 X32.858 Y106.272 E0.75547
G1 X33.382 Y105.588 E0.80583
G1 X33.712 Y104.792 E0.8562
G1 X33.824 Y103.938 E0.90656
G1 X33.712 Y103.083 E0.95693
G1 X33.382 Y102.287 E1.00729
G1 X32.858 Y101.603 E1.05766
G1 X32.174 Y101.079 E1.10802
G1 X31.378 Y100.749 E1.15839
G1 X30.583 Y100.644 E1.20525
G1 X30.523 Y101.228 F27000
;TYPE:External perimeter
G1 F1800
G1 X30.173 Y101.274 E1.22592
G1 X29.822 Y101.32 E1.24659
G1 X29.169 Y101.591 E1.28793
G1 X28.607 Y102.022 E1.32927
G1 X28.177 Y102.583 E1.37061
G1 X27.906 Y103.236 E1.41195
G1 X27.814 Y103.938 E1.4533
